X:135
T: Bonny Anne
T: \'Aine Bh\'oidheach
S: B.Breathnach:"Ceol Rince na hEireann" III/150
Z: B.Black
L: 1/8
M: 4/4
R: reel
K: D
de|: (3fgf ed cAAB|cAdB cAAe|fded cAAB|cAGE FD D2|
(3fgf ed cAAB|cAdB cAGE|DEFG AddB|cAGE FD D2 :|
Ad (3ddd defg|abaf g2 (3ABc|d2 dc dfed|cAAG EFGB|
Addc defg|abaf g2 (3efg|afge dfed|cAGE FD D2 :|
